src/assets/duotone/UsdCoin.svg

<svg width="24" height="24" viewBox="0 0 24 24"  xmlns="http://www.w3.org/2000/svg">
<path opacity="0.4" d="M12 22C17.5228 22 22 17.5228 22 12C22 6.47715 17.5228 2 12 2C6.47715 2 2 6.47715 2 12C2 17.5228 6.47715 22 12 22Z" />
<path d="M16.9501 17.7002C16.7601 17.7002 16.5701 17.6302 16.4201 17.4802C16.1301 17.1902 16.1301 16.7102 16.4201 16.4202C17.6001 15.2402 18.2501 13.6702 18.2501 12.0002C18.2501 10.3302 17.6001 8.76023 16.4201 7.58023C16.1301 7.29023 16.1301 6.81023 16.4201 6.52023C16.7101 6.23023 17.1901 6.23023 17.4801 6.52023C18.9401 7.98023 19.7501 9.93023 19.7501 12.0002C19.7501 14.0702 18.9401 16.0202 17.4801 17.4802C17.3301 17.6302 17.1401 17.7002 16.9501 17.7002Z" />
<path d="M7.04999 17.7002C6.85999 17.7002 6.66999 17.6302 6.51999 17.4802C5.05999 16.0202 4.25 14.0702 4.25 12.0002C4.25 9.93023 5.05999 7.98023 6.51999 6.52023C6.80999 6.23023 7.28999 6.23023 7.57999 6.52023C7.86999 6.81023 7.86999 7.29023 7.57999 7.58023C6.39999 8.76023 5.75 10.3302 5.75 12.0002C5.75 13.6702 6.39999 15.2402 7.57999 16.4202C7.86999 16.7102 7.86999 17.1902 7.57999 17.4802C7.42999 17.6302 7.23999 17.7002 7.04999 17.7002Z" />
<path d="M13.6499 11.7808L12.7499 11.4608V9.48078H12.7799C13.2199 9.48078 13.5899 9.88078 13.5899 10.3608C13.5899 10.7708 13.9299 11.1108 14.3399 11.1108C14.7499 11.1108 15.0899 10.7708 15.0899 10.3608C15.0899 9.05078 14.0599 7.98078 12.7799 7.98078H12.7499V7.80078C12.7499 7.39078 12.4099 7.05078 11.9999 7.05078C11.5899 7.05078 11.2499 7.39078 11.2499 7.80078V7.98078H11.0199C9.8599 7.98078 8.90991 8.96078 8.90991 10.1508C8.90991 11.2008 9.3799 11.8708 10.3399 12.2108L11.2399 12.5308V14.5108H11.2099C10.7699 14.5108 10.3999 14.1108 10.3999 13.6308C10.3999 13.2208 10.0599 12.8808 9.6499 12.8808C9.2399 12.8808 8.8999 13.2208 8.8999 13.6308C8.8999 14.9408 9.9299 16.0108 11.2099 16.0108H11.2399V16.1908C11.2399 16.6008 11.5799 16.9408 11.9899 16.9408C12.3999 16.9408 12.7399 16.6008 12.7399 16.1908V16.0108H12.9699C14.1299 16.0108 15.0799 15.0308 15.0799 13.8408C15.0799 12.7908 14.6199 12.1208 13.6499 11.7808ZM10.8399 10.8008C10.5199 10.6908 10.4099 10.6308 10.4099 10.1608C10.4099 9.79078 10.6799 9.49078 11.0199 9.49078H11.2499V10.9508L10.8399 10.8008ZM12.9799 14.5208H12.7499V13.0608L13.1599 13.2008C13.4799 13.3108 13.5899 13.3708 13.5899 13.8408C13.5799 14.2108 13.3099 14.5208 12.9799 14.5208Z" />
</svg>

<?xml version="1.0" encoding="UTF-8"?>
<svg width="24" height="24" viewBox="0 0 24 24" xmlns="http://www.w3.org/2000/svg">
 <path d="m12 22c5.5228 0 10-4.4772 10-10 0-5.5228-4.4772-10-10-10-5.5228 0-10 4.4772-10 10 0 5.5228 4.4772 10 10 10z" opacity=".4"/>
 <path d="m16.95 17.7c-0.19 0-0.38-0.07-0.53-0.22-0.29-0.29-0.29-0.77 0-1.06 1.18-1.18 1.83-2.75 1.83-4.42s-0.65-3.24-1.83-4.42c-0.29-0.29-0.29-0.77 0-1.06s0.77-0.29 1.06 0c1.46 1.46 2.27 3.41 2.27 5.48 0 2.07-0.81 4.02-2.27 5.48-0.15 0.15-0.34 0.22-0.53 0.22z"/>
 <path d="m7.05 17.7c-0.19 0-0.38-0.07-0.53-0.22-1.46-1.46-2.27-3.41-2.27-5.48 0-2.07 0.80999-4.02 2.27-5.48 0.29-0.29 0.77-0.29 1.06 0s0.29 0.77 0 1.06c-1.18 1.18-1.83 2.75-1.83 4.42s0.64999 3.24 1.83 4.42c0.29 0.29 0.29 0.77 0 1.06-0.15 0.15-0.34 0.22-0.53 0.22z"/>
 <path d="m13.65 11.781-0.9-0.32v-1.98h0.03c0.44 0 0.81 0.4 0.81 0.88002 0 0.41 0.34 0.75 0.75 0.75s0.75-0.34 0.75-0.75c0-1.31-1.03-2.38-2.31-2.38h-0.03v-0.18c0-0.41-0.34-0.75-0.75-0.75s-0.75 0.34-0.75 0.75v0.18h-0.23c-1.16 0-2.11 0.98-2.11 2.17 0 1.05 0.46999 1.72 1.43 2.06l0.9 0.32v1.98h-0.03c-0.44 0-0.81-0.4-0.81-0.88 0-0.41-0.34-0.75-0.75-0.75s-0.75 0.34-0.75 0.75c0 1.31 1.03 2.38 2.31 2.38h0.03v0.18c0 0.41 0.34 0.75 0.75 0.75s0.75-0.34 0.75-0.75v-0.18h0.23c1.16 0 2.11-0.98 2.11-2.17 0-1.05-0.46-1.72-1.43-2.06zm-2.81-0.98c-0.32-0.11-0.43-0.17-0.43-0.64 0-0.37002 0.27-0.67002 0.61-0.67002h0.23v1.46l-0.41-0.15zm2.14 3.72h-0.23v-1.46l0.41 0.14c0.32 0.11 0.43 0.17 0.43 0.64-0.01 0.37-0.28 0.68-0.61 0.68z"/>
</svg>
